flaticon/constructions/saw-5.svg

<svg xmlns="http://www.w3.org/2000/svg" width="32" height="32" viewBox="0 0 24 24">
    <path d="M 7.988281 12.796875 C 6.867188 12.796875 5.988281 13.675781 5.988281 14.796875 C 5.988281 15.914062 6.867188 16.792969 7.988281 16.792969 C 9.105469 16.792969 9.984375 15.914062 9.984375 14.796875 C 9.984375 13.675781 9.105469 12.796875 7.988281 12.796875 Z M 7.988281 15.992188 C 7.308594 15.992188 6.789062 15.472656 6.789062 14.796875 C 6.789062 14.117188 7.308594 13.597656 7.988281 13.597656 C 8.664062 13.597656 9.183594 14.117188 9.183594 14.796875 C 9.183594 15.472656 8.664062 15.992188 7.988281 15.992188 Z M 7.988281 15.992188"/>
    <path d="M 22.769531 8.933594 C 23.007812 8.441406 22.832031 7.851562 22.363281 7.527344 L 14.773438 2.496094 C 14.695312 2.414062 14.574219 2.414062 14.496094 2.414062 L 13.695312 2.574219 C 13.632812 2.574219 13.539062 2.628906 13.488281 2.691406 C 13.0625 2.515625 12.566406 2.488281 11.898438 2.65625 C 10.222656 3.054688 8.746094 4.214844 7.867188 5.808594 L 7.320312 6.835938 C 3.234375 7.179688 0 10.628906 0 14.796875 C 0 15.035156 0.160156 15.195312 0.398438 15.195312 L 1.210938 15.195312 C 1.417969 18.761719 4.367188 21.585938 7.988281 21.585938 C 10.417969 21.585938 12.550781 20.308594 13.75 18.390625 L 18.449219 18.390625 C 21.484375 18.390625 23.960938 15.914062 24 12.839844 L 24 11.679688 C 24 10.628906 23.539062 9.644531 22.769531 8.933594 Z M 14.457031 3.253906 L 22.003906 8.207031 C 22.117188 8.320312 22.191406 8.5 22.105469 8.652344 C 22.046875 8.679688 22 8.714844 21.964844 8.765625 C 21.605469 9.203125 20.964844 9.324219 20.484375 9.003906 L 14.296875 5.011719 C 13.953125 4.792969 13.761719 4.433594 13.746094 4.074219 C 13.746094 3.84375 13.820312 3.628906 13.9375 3.453125 L 14.015625 3.335938 Z M 14.773438 15.195312 L 15.574219 15.195312 C 15.8125 15.195312 15.972656 15.035156 15.972656 14.796875 C 15.972656 14.734375 15.972656 14.671875 15.972656 14.609375 C 15.972656 14.601562 15.972656 14.597656 15.972656 14.589844 C 15.96875 14.582031 15.96875 14.574219 15.96875 14.566406 C 15.96875 14.554688 15.96875 14.539062 15.96875 14.527344 C 15.96875 14.496094 15.964844 14.460938 15.964844 14.425781 C 15.964844 14.414062 15.964844 14.398438 15.964844 14.386719 C 15.960938 14.386719 15.960938 14.382812 15.960938 14.382812 C 15.960938 14.359375 15.960938 14.339844 15.957031 14.316406 C 15.957031 14.296875 15.957031 14.277344 15.953125 14.253906 C 15.953125 14.207031 15.949219 14.160156 15.945312 14.113281 C 15.945312 14.109375 15.941406 14.101562 15.941406 14.097656 C 15.640625 10.644531 13.132812 7.816406 9.84375 7.027344 L 10.382812 6.410156 C 10.703125 5.96875 11.140625 5.609375 11.539062 5.371094 C 11.78125 6.050781 12.257812 6.648438 12.898438 7.046875 L 19.089844 11.042969 C 19.808594 11.480469 20.683594 11.679688 21.523438 11.5625 C 21.523438 11.640625 21.523438 11.679688 21.523438 11.71875 L 21.523438 12.878906 C 21.523438 14.59375 20.125 15.992188 18.410156 15.992188 L 14.6875 15.992188 C 14.734375 15.730469 14.761719 15.464844 14.773438 15.195312 Z M 7.988281 7.605469 C 11.808594 7.605469 14.953125 10.582031 15.171875 14.355469 L 14.375 14.355469 C 14.304688 14.355469 14.242188 14.371094 14.1875 14.394531 L 13.578125 14.394531 C 13.378906 11.480469 10.941406 9.203125 7.988281 9.203125 C 5.03125 9.203125 2.59375 11.480469 2.394531 14.394531 L 0.796875 14.394531 C 1.039062 10.601562 4.152344 7.605469 7.988281 7.605469 Z M 7.988281 20.785156 C 4.792969 20.785156 2.195312 18.308594 1.996094 15.195312 L 2.796875 15.195312 C 3.035156 15.195312 3.195312 15.035156 3.195312 14.796875 C 3.195312 12.160156 5.351562 10.003906 7.988281 10.003906 C 10.621094 10.003906 12.777344 12.160156 12.777344 14.796875 C 12.777344 15.035156 12.9375 15.195312 13.179688 15.195312 L 13.957031 15.195312 C 13.925781 15.554688 13.863281 15.902344 13.777344 16.273438 C 13.765625 16.304688 13.761719 16.339844 13.761719 16.375 C 13.628906 16.867188 13.429688 17.34375 13.179688 17.789062 C 13.15625 17.820312 13.144531 17.851562 13.132812 17.886719 C 12.085938 19.621094 10.175781 20.785156 7.988281 20.785156 Z M 23.160156 12.878906 C 23.160156 15.472656 21.046875 17.589844 18.449219 17.589844 L 14.175781 17.589844 C 14.175781 17.589844 14.179688 17.585938 14.179688 17.582031 C 14.300781 17.324219 14.40625 17.058594 14.492188 16.792969 L 18.449219 16.792969 C 20.605469 16.792969 22.363281 15.035156 22.363281 12.839844 L 22.363281 11.679688 C 22.363281 11.402344 22.28125 11.160156 22.203125 10.921875 C 22.125 10.722656 21.921875 10.640625 21.722656 10.683594 C 20.964844 10.882812 20.167969 10.722656 19.527344 10.324219 L 13.378906 6.328125 C 12.820312 5.929688 12.378906 5.332031 12.21875 4.652344 C 12.179688 4.53125 12.140625 4.414062 12.019531 4.371094 C 11.941406 4.332031 11.820312 4.332031 11.699219 4.371094 C 10.980469 4.691406 10.304688 5.210938 9.785156 5.851562 L 8.914062 6.859375 C 8.699219 6.835938 8.484375 6.816406 8.265625 6.808594 L 8.585938 6.210938 C 9.382812 4.8125 10.664062 3.8125 12.101562 3.453125 C 12.5 3.375 12.820312 3.335938 13.058594 3.414062 C 12.777344 4.253906 13.058594 5.210938 13.855469 5.691406 L 20.007812 9.683594 C 20.347656 9.925781 20.75 10.023438 21.148438 10.003906 C 21.1875 10.003906 21.230469 10 21.269531 9.992188 C 21.621094 9.949219 21.957031 9.816406 22.242188 9.605469 C 22.84375 10.164062 23.160156 10.921875 23.160156 11.71875 Z M 23.160156 12.878906"/>
</svg>

<svg xmlns="http://www.w3.org/2000/svg" width="32" height="32" viewBox="0 0 24 24">
    <path d="M7.988 12.797c-1.12 0-2 .879-2 2 0 1.117.88 1.996 2 1.996a1.977 1.977 0 0 0 1.996-1.996c0-1.121-.879-2-1.996-2zm0 3.195c-.68 0-1.199-.52-1.199-1.195 0-.68.52-1.2 1.2-1.2.675 0 1.195.52 1.195 1.2 0 .676-.52 1.195-1.196 1.195zm0 0"/>
    <path d="M22.77 8.934c.238-.493.062-1.082-.407-1.407l-7.59-5.03c-.078-.083-.199-.083-.277-.083l-.8.16c-.063 0-.157.055-.208.117-.425-.175-.922-.203-1.59-.035-1.675.399-3.152 1.559-4.03 3.153L7.32 6.836C3.234 7.18 0 10.629 0 14.796c0 .24.16.4.398.4h.813a6.784 6.784 0 0 0 6.777 6.39 6.788 6.788 0 0 0 5.762-3.195h4.7c3.034 0 5.51-2.477 5.55-5.551v-1.16c0-1.051-.46-2.035-1.23-2.746zm-8.313-5.68l7.547 4.953c.113.113.187.293.101.445a.336.336 0 0 0-.14.114c-.36.437-1 .558-1.48.238l-6.188-3.992a1.178 1.178 0 0 1-.55-.938c0-.23.073-.445.19-.62l.079-.118zm.316 11.941h.801c.239 0 .399-.16.399-.398v-.188-.02c-.004-.007-.004-.015-.004-.023v-.039c0-.03-.004-.066-.004-.101v-.04c-.004 0-.004-.003-.004-.003 0-.024 0-.043-.004-.067 0-.02 0-.039-.004-.062 0-.047-.004-.094-.008-.14 0-.005-.004-.012-.004-.016-.3-3.453-2.808-6.282-6.097-7.07l.539-.618c.32-.441.758-.8 1.156-1.039a3.28 3.28 0 0 0 1.36 1.676l6.19 3.996a3.742 3.742 0 0 0 2.434.52V12.878a3.12 3.12 0 0 1-3.113 3.113h-3.723a5.99 5.99 0 0 0 .086-.797zm-6.785-7.59c3.82 0 6.965 2.977 7.184 6.75h-.797a.472.472 0 0 0-.188.04h-.609c-.2-2.915-2.637-5.192-5.59-5.192-2.957 0-5.394 2.277-5.593 5.192H.797c.242-3.793 3.355-6.79 7.191-6.79zm0 13.18c-3.195 0-5.793-2.476-5.992-5.59h.8c.24 0 .4-.16.4-.398a4.806 4.806 0 0 1 4.792-4.793c2.633 0 4.79 2.156 4.79 4.793 0 .238.16.398.402.398h.777c-.031.36-.094.707-.18 1.078a.291.291 0 0 0-.015.102 6.2 6.2 0 0 1-.582 1.414.321.321 0 0 0-.047.098 5.999 5.999 0 0 1-5.145 2.898zM23.16 12.88a4.719 4.719 0 0 1-4.71 4.71h-4.274s.004-.003.004-.007c.12-.258.226-.523.312-.789h3.957c2.156 0 3.914-1.758 3.914-3.953v-1.16c0-.278-.082-.52-.16-.758-.078-.2-.281-.281-.48-.238-.758.199-1.555.039-2.196-.36L13.38 6.328c-.559-.398-1-.996-1.16-1.676-.04-.12-.078-.238-.2-.28-.078-.04-.199-.04-.32 0-.719.32-1.394.839-1.914 1.48l-.87 1.007a8.882 8.882 0 0 0-.65-.05l.32-.598c.798-1.399 2.08-2.399 3.517-2.758.398-.078.718-.117.957-.039-.282.84 0 1.797.796 2.277l6.153 3.993a1.797 1.797 0 0 0 1.262.308c.351-.043.687-.176.972-.387.602.56.918 1.317.918 2.114zm0 0"/>
</svg>
